X:1
T:James Gibb editions
T:Burst forth my tears - Dowland
T:#
%%score [ 1 2 3 4 ]
L:1/8
Q:1/4=140
M:none
K:F
V:1 treble nm="Soprano" snm="S"
V:2 treble nm="Alto" snm="A"
V:3 treble-8 nm="Tenor" snm="T"
V:4 bass nm="Bass" snm="B"
V:1
"^Burst forth my tears""^John Dowland\n(1563-1626)" z8 G8 | z4 B8 G4- | G4 F8 B4- | B4 G4 B4 A4 | %4
w: Burst,|burst forth|* my tears|* as- sist my|
w: Sad,|sad pin\-|* ing care|* that ne- ver|
w: Like|Like to|* the winds|* my sighs have|
 G6 A2 ^F8 | z8 z4 A4 | F4 G4 A6 c2 | B4 A4 G6 G2 | A8 z8 | z4 D4 D4 D4 | D8 z4 D4- | D4 G8 F4 | %12
w: for- ward grief,|and|see what pain im-|pe- r'ious Love pro-|vokes:|Kind, ten- der|lambs, la\-|* ment lov'es|
w: may have peace,|at|Beau- ty's gate in|hope of pi- ty|knocks:|But Mer- cy|sleeps while|* deep dis-|
w: wing- ed been,|yet|are my sighs and|suits re- paid with|mocks:|I plead, yet|she re\-|* pin- eth|
 E6 E2 D8 | z4 d4 c4 B4 | A4 G4 ^F4 G4 | A6 A2 G8 |: z8 z4 c4- | c2 G2 B4 A4 G4 | ^F8 z4 d4- | %19
w: scant re- lief,|and pine, since|pen- sive care my|free- dom yokes.|O,|* pine to see me|pine, O,|
w: dain in- crease,|and Beau- ty,|Hope in her fair|bos- om locks.|O,|* grieve to hear my|grief, O,|
w: at my teen:|O, ruth- less|rig- our, hard- er|than the rocks.|That|* both the shep- herd|kills that|
 d2 A2 c4 B4 G4 | ^F4 G4 A6 A2 | G16 :| %22
w: * pine to see me|pine, my ten- der|flocks.|
w: * grieve to hear my|grief, my ten- der|flocks.|
w: * both the shep- herd|kills, and his poor|flocks.|
V:2
 D8 z4 _E4- | E4 D8 !courtesy!_E4 | D8 C4 D4- | D4 (_E6 D2) D4- | D4 C4 D8 | (D2 E2 F2 D2) E6 F2 | %6
w: Burst, burst|* forth my|tears as- sist|* my * for\-|* ward grief,|and * * * see what|
w: Sad, sad|* pin- ing|care that nev-|* er * may|* have peace,|at * * * Beau- ty's|
w: Like, like|* to the|winds, my sighs|* have * wing\-|* ed been,|yet * * * are my|
 DD (F3 E D2) ^C4 D4- | D2 G4 F2 D6 E2 | F2 D2 F2 G2 A2 (c3 G) B2 | A8 z4 B4- | %10
w: pain, what pain * * im- pe\-|* ri- ous Love pro-|vokes, im- pe- ri- ous Love * pro-|vokes: Kind,|
w: gate, in hope * * of pi\-|* ty, in hope of|pi- ty, in hope of pi- * ty,|knocks: But|
w: sighs and suits * * re- paid,|* yet are my sighs,|my sighs and suits re- paid * with|mocks: I|
 B2 (A3 B) G2 ^F6 F2 | G2 F2 E2 D2 (^C4 D4- | D2 ^C=B,) C4 D4 F4 | E4 D4 E2 F2 G4 | %14
w: * ten- * der lambs, la-|ment, la- ment Love's scant *|* * * re- lief and|pine, since pen- sive care|
w: * Mer- * cy, Mer- cy|sleeps, while deep dis- dain *|* * * in- crease, and|Beau- ty Hope, in her|
w: * plead, * I plead, yet|she re- pin- eth at *|* * * my teen, O,|ruth- less, ruth- less rig-|
 F2 D4 C2 D6 D2 | (_E4 D3) B, B,8 |: z4 G6 D2 F4 | _E4 D4 D8 | z4 A6 E2 G4 | G4 ^F4 G4 D4 | %20
w: my free- dom yokes, my|free\- * dom yokes.|O, pine to|see me pine,|O, pine to|see me pine, to|
w: fair bo- som, her fair|bos\- * om locks.|O, grieve to|hear my grief,|to hear my|grief, O, grieve to|
w: our, rig- our hard- er|than * the rocks.|That both the|shep- herd kills,|the shep- herd|kills, that both the|
 D6 D2 _E2 E2 D3 C | =B,16 :| %22
w: see me pine, my ten- der|flocks.|
w: hear my grief, my ten- der|flocks.|
w: shep- herd kills and his poor|flocks.|
V:3
 G8 z8 | G8 G4 c4 | B8 A4 G4- | G4 C4 G4 F4 | _E6 E2 D8 | A4 A2 =B2 c4 A4- | A4 D4 E4 A4 | %7
w: Burst,|burst forth my|tears, as- sist,|* as- sist my|for- ward grief,|and see what pain, pain,|* im- pe- ri'ous|
w: Sad,|sad pin- ing|care that nev-|* er, ne- ver|may have peace,|at Beau- ty's gate, her|* gate, in hope|
w: Like,|like to the|winds my sighs,|* my sighs have|wing- ed been,|yet are my sighs and|* suits, my sighs|
 d6 A2 B4 B4 | A4 d4 d6 G2 | ^F8 z4 z2 G2 | (A2 c2) B4 A6 A2 | B2 A2 G2 F2 E4 D4 | %12
w: love pro- vokes, im-|pe- r'ious love pro|vokes: Kind,|ten- * der lambs, la-|ment, la- ment Love's scant re-|
w: of pi- ty, in|hope of pi- ty|knocks: But|Mer- * cy sleeps, she|sleeps, while deep dis- dain in-|
w: and suits re- paid,|suits re- paid with|mocks: I|plead, * yet she re-|pin- eth, she re- pin- eth|
 A6 A2 ^F4 z2 A2- | A2 G4 F2 A3 A D4 | z2 F2 G2 A2 B2 A4 (G2- | G2 ^FE) F4 G8 |: c6 G2 B4 A2 A2 | %17
w: lief, re- lief, and|* pine, since pen- sive care,|since pen- sive care my free\-|* * * dom yokes.|O, pine to see me|
w: crease, in- crease, and|* Beau- ty hope in her|fair bos- om, her fair bo\-|* * * som locks.|O, grieve to hear my|
w: at my teen, O,|* ruth- less rig- our, ruth-|less rig- our, hard- er than|* * * the rocks.|That both the shep- herd|
 G4 z2 d4 A2 B4 | A8 z4 G4 | c4 A4 d6 B2 | A4 G4 G4 ^F4 | G16 :| %22
w: pine, to see me|pine, O,|pine to see me|pine my ten- der|flocks,|
w: grief, to hear my|grief, O|grieve to hear my|grief, my ten- der|flocks.|
w: kills, the shep- herd|kills, that|both the shep- herd|kills and his poor|flocks.|
V:4
 z16 | x8 z8 | z16 | z16 | z16 | D,8 A,,8 | B,,8 A,,4 ^F,,4 | G,,4 D,4 B,,4 G,,4 | %8
w: |||||And see|what pain im-|pe- r'ious Love, im-|
w: |||||At Beau-|ty's gate in|hope of pi- ty,|
w: |||||Yet are|my sighs and|suits, my sighs and|
 D,6 E,2 ^F,4 G,4 | D,8 z4 G,4 | ^F,4 G,4 D,6 D,2 | G,,4 G,,4 A,,8- | A,,4 A,,4 D,4 D,4 | %13
w: pe- r'ious Love pro-|vokes: Kind|ten- der lambs la-|ment Love's scant|* re- lief and|
w: hope of pi- ty|knocks: but|Mer- cy sleeps, while|deep dis- dain|* in- crease, and|
w: suits re- paid with|mocks: I|plead, yet she re-|pin- eth at|* my teen, O,|
 C,4 B,,4 A,,4 G,,4 | D,4 _E,4 D,4 B,,2 B,,2 | C,4 D,4 G,,8 |: z16 | G,6 D,2 ^F,4 G,2 G,,2 | %18
w: pine, since pen- sive|care my free- dom, my|free- dom yokes.||O, pine to see me|
w: Beau- ty hope in|her fair bos- om, fair|bo- som locks.||O, grieve to hear my|
w: ruth- less rig- our,|hard- er than, hard- er|than the rocks.||That both the shep- herd|
 D,6 A,,2 C,4 B,,4 | A,,8 G,,8 | D,4 B,,2 B,,2 C,4 D,4 | G,,16 :| %22
w: pine, to see me|pine my|ten- der, my ten- der|flocks,|
w: grief, to hear my|grief, my|ten- der, my ten- der|flocks,|
w: kills, the shep- herd|kills and|his poor, and his poor|flocks|

